svgs/thin/car-bus.svg

<svg xmlns="http://www.w3.org/2000/svg" viewBox="0 0 640 512"><!--! Font Awesome Pro 6.6.0 by @fontawesome - https://fontawesome.com License - https://fontawesome.com/license (Commercial License) Copyright 2024 Fonticons, Inc. --><path d="M32.8 58.5C20.5 68.5 16.2 85.3 16 104l176 0 176 0c-.2-18.7-4.5-35.5-16.8-45.5C326.7 38.7 277.2 16 192 16S57.3 38.7 32.8 58.5zM16 120l0 112 168 0 0-112L16 120zm0 128l0 112c0 22.1 17.9 40 40 40l40 0 16 0 112 0 0 16-112 0 0 32c0 17.7-14.3 32-32 32l-16 0c-17.7 0-32-14.3-32-32l0-32 0-5.4c-18.9-9-32-28.3-32-50.6L0 105.1C0 84.5 4.4 61 22.7 46.1C50.7 23.4 104 0 192 0s141.3 23.4 169.3 46.1C379.6 61 384 84.5 384 105.1l0 38.9-3.8 0c-4.1 0-8.2 .3-12.2 .8l0-24.8-168 0 0 112 82.7 0-4.6 16L192 248 16 248zM96 416l-40 0-8 0 0 32c0 8.8 7.2 16 16 16l16 0c8.8 0 16-7.2 16-16l0-32zm0-112a16 16 0 1 0 0 32 16 16 0 1 0 0-32zm32 16a32 32 0 1 1 -64 0 32 32 0 1 1 64 0zM380.2 192c-17.9 0-33.6 11.8-38.5 29l-19.5 68.2c4.5-.8 9-1.2 13.7-1.2l224 0c4.7 0 9.3 .4 13.7 1.2L554.3 221c-4.9-17.2-20.6-29-38.5-29l-135.6 0zM304.3 293.8l22.1-77.2c6.9-24 28.8-40.6 53.8-40.6l135.6 0c25 0 47 16.6 53.8 40.6l22.1 77.2-1 .3c29 12 49.3 40.6 49.3 73.9l0 64 0 16 0 32c0 17.7-14.3 32-32 32l-16 0c-17.7 0-32-14.3-32-32l0-32-224 0 0 32c0 17.7-14.3 32-32 32l-16 0c-17.7 0-32-14.3-32-32l0-32 0-16 0-64c0-33.3 20.4-61.9 49.3-73.9l-1-.3zM576 432l48 0 0-64c0-35.3-28.7-64-64-64l-224 0c-35.3 0-64 28.7-64 64l0 64 48 0 16 0 224 0 16 0zm16 64l16 0c8.8 0 16-7.2 16-16l0-32-48 0 0 32c0 8.8 7.2 16 16 16zM320 448l-48 0 0 32c0 8.8 7.2 16 16 16l16 0c8.8 0 16-7.2 16-16l0-32zm0-80a16 16 0 1 0 32 0 16 16 0 1 0 -32 0zm16 32a32 32 0 1 1 0-64 32 32 0 1 1 0 64zm224-48a16 16 0 1 0 0 32 16 16 0 1 0 0-32zm32 16a32 32 0 1 1 -64 0 32 32 0 1 1 64 0z"/></svg>

<svg xmlns="http://www.w3.org/2000/svg" viewBox="0 0 640 512"><!--! Font Awesome Pro 6.4.0 by @fontawesome - https://fontawesome.com License - https://fontawesome.com/license (Commercial License) Copyright 2023 Fonticons, Inc. --><path d="M32.8 58.5C20.5 68.5 16.2 85.3 16 104H192 368c-.2-18.7-4.5-35.5-16.8-45.5C326.7 38.7 277.2 16 192 16S57.3 38.7 32.8 58.5zM16 120V232H184V120H16zm0 128V360c0 22.1 17.9 40 40 40H96h16H224v16H112v32c0 17.7-14.3 32-32 32H64c-17.7 0-32-14.3-32-32V416v-5.4c-18.9-9-32-28.3-32-50.6V105.1C0 84.5 4.4 61 22.7 46.1C50.7 23.4 104 0 192 0s141.3 23.4 169.3 46.1C379.6 61 384 84.5 384 105.1V144h-3.8c-4.1 0-8.2 .3-12.2 .8V120H200V232h82.7l-4.6 16H192 16zM96 416H56 48v32c0 8.8 7.2 16 16 16H80c8.8 0 16-7.2 16-16V416zm0-112a16 16 0 1 0 0 32 16 16 0 1 0 0-32zm32 16a32 32 0 1 1 -64 0 32 32 0 1 1 64 0zM380.2 192c-17.9 0-33.6 11.8-38.5 29l-19.5 68.2c4.5-.8 9-1.2 13.7-1.2H560c4.7 0 9.3 .4 13.7 1.2L554.3 221c-4.9-17.2-20.6-29-38.5-29H380.2zM304.3 293.8l22.1-77.2c6.9-24 28.8-40.6 53.8-40.6H515.8c25 0 47 16.6 53.8 40.6l22.1 77.2-1 .3c29 12 49.3 40.6 49.3 73.9v64 16 32c0 17.7-14.3 32-32 32H592c-17.7 0-32-14.3-32-32V448H336v32c0 17.7-14.3 32-32 32H288c-17.7 0-32-14.3-32-32V448 432 368c0-33.3 20.4-61.9 49.3-73.9l-1-.3zM576 432h48V368c0-35.3-28.7-64-64-64H336c-35.3 0-64 28.7-64 64v64h48 16H560h16zm16 64h16c8.8 0 16-7.2 16-16V448H576v32c0 8.8 7.2 16 16 16zM320 448H272v32c0 8.8 7.2 16 16 16h16c8.8 0 16-7.2 16-16V448zm0-80a16 16 0 1 0 32 0 16 16 0 1 0 -32 0zm16 32a32 32 0 1 1 0-64 32 32 0 1 1 0 64zm224-48a16 16 0 1 0 0 32 16 16 0 1 0 0-32zm32 16a32 32 0 1 1 -64 0 32 32 0 1 1 64 0z"/></svg>
